assets/svg/facebook.svg

<svg fill="none" height="24" viewBox="0 0 24 24" width="24" xmlns="http://www.w3.org/2000/svg"><path clip-rule="evenodd" d="m3 0h18c1.6545 0 3 1.3455 3 3v18c0 1.6545-1.3455 3-3 3h-4.2381v-8.2198h2.2857l1.5238-3.7362h-3.8095v-2.98906c0-.75829.5768-.75391 1.3232-.74825.0657.0005.1326.001.2006.001h1.5238v-3.73626h-3.0476c-2.5249 0-4.5714 2.00712-4.5714 4.48351v2.98906h-3.04764v3.7362h3.04764v8.2198h-9.1905c-1.6545 0-3-1.3455-3-3v-18c0-1.6545 1.3455-3 3-3z" fill="#00343d" fill-rule="evenodd"/></svg>

<svg width="24" height="24" viewBox="0 0 24 24" fill="none" xmlns="http://www.w3.org/2000/svg">
<path fill-rule="evenodd" clip-rule="evenodd" d="M3 0H21C22.6545 0 24 1.3455 24 3V21C24 22.6545 22.6545 24 21 24H16.7619V15.7802H19.0476L20.5714 12.044H16.7619V9.05494C16.7619 8.29665 17.3387 8.30103 18.0851 8.30669C18.1508 8.30719 18.2177 8.30769 18.2857 8.30769H19.8095V4.57143H16.7619C14.237 4.57143 12.1905 6.57855 12.1905 9.05494V12.044H9.14286V15.7802H12.1905V24H3C1.3455 24 0 22.6545 0 21V3C0 1.3455 1.3455 0 3 0Z" fill="#00343D"/>
</svg>
